assets/dude/We–Loretta.svg

<svg width="232" height="107" viewBox="0 0 232 107" fill="none" xmlns="http://www.w3.org/2000/svg">
<path d="M132.501 3.1799C126.201 3.1799 126.201 6.53991 124.661 6.53991C124.521 6.53991 124.381 6.3999 124.381 6.25991C124.381 6.11991 124.521 5.6999 124.521 5.41991C124.521 3.73991 123.261 2.4799 121.581 2.4799C119.901 2.4799 118.641 3.73991 118.641 5.41991C118.641 5.6999 118.781 6.11991 118.781 6.25991C118.781 6.3999 118.641 6.53991 118.501 6.53991C116.961 6.53991 116.821 3.1799 110.661 3.1799C104.781 3.1799 100.861 7.93991 100.861 13.9599V38.7399C100.861 39.4399 101.421 39.9999 102.121 39.9999H117.521C118.081 39.9999 118.361 40.2799 118.361 40.5599C118.361 40.9799 117.941 41.8199 117.941 41.8199L107.161 65.8999C106.461 67.2999 105.901 67.7199 105.201 67.7199H92.7411C92.0411 67.7199 91.4811 67.2999 90.6411 65.7599L80.0011 41.8199C80.0011 41.8199 79.5811 40.9799 79.5811 40.5599C79.5811 40.2799 79.8611 39.9999 80.4211 39.9999H90.2211C90.9211 39.9999 91.4811 39.4399 91.4811 38.7399V13.9599C91.4811 7.93991 88.4011 3.1799 82.5211 3.1799C76.2211 3.1799 76.0811 6.53991 74.5411 6.53991C74.4011 6.53991 74.2611 6.3999 74.2611 6.25991C74.2611 6.11991 74.4011 5.6999 74.4011 5.41991C74.4011 3.73991 73.1411 2.4799 71.4611 2.4799C69.7811 2.4799 68.5211 3.73991 68.5211 5.41991C68.5211 5.6999 68.6611 6.11991 68.6611 6.25991C68.6611 6.3999 68.5211 6.53991 68.3811 6.53991C66.8411 6.53991 66.5611 3.1799 60.4011 3.1799C54.5211 3.1799 51.4411 7.93991 51.4411 13.9599V38.7399C51.4411 39.4399 52.0011 39.9999 52.7011 39.9999H64.6011C65.1611 39.9999 65.4411 40.2799 65.4411 40.5599C65.4411 40.9799 65.0211 41.8199 65.0211 41.8199L54.2411 65.8999C53.5411 67.2999 52.9811 67.7199 52.2811 67.7199H39.8211C39.1211 67.7199 38.5611 67.2999 37.7211 65.7599L27.0811 41.8199C27.0811 41.8199 26.6611 40.9799 26.6611 40.5599C26.6611 40.2799 26.9411 39.9999 27.5011 39.9999H40.8011C41.5011 39.9999 41.9211 39.5799 42.0611 38.8799V13.9599C42.0611 7.93991 38.1411 3.1799 32.2611 3.1799C25.9611 3.1799 25.9611 6.53991 24.4211 6.53991C24.2811 6.53991 24.1411 6.3999 24.1411 6.25991C24.1411 6.11991 24.2811 5.6999 24.2811 5.41991C24.2811 3.73991 23.0211 2.4799 21.3411 2.4799C19.6611 2.4799 18.4011 3.73991 18.4011 5.41991C18.4011 5.6999 18.5411 6.11991 18.5411 6.25991C18.5411 6.3999 18.4011 6.53991 18.2611 6.53991C16.7211 6.53991 16.5811 3.1799 10.4211 3.1799C4.54109 3.1799 0.621094 7.93991 0.621094 13.9599V38.7399C0.621094 39.4399 1.18109 39.9999 1.88109 39.9999H10.1411C10.8411 39.9999 11.5411 40.5599 12.1011 41.8199L39.1211 102.86C39.4011 103.42 40.6611 105.52 43.6011 105.52C46.2611 105.52 47.6611 103.42 47.9411 102.86L68.5211 56.7999C68.5211 56.7999 69.2211 54.9799 70.0611 54.9799C70.9011 54.9799 71.6011 56.7999 71.6011 56.7999L92.0411 102.86C92.3211 103.42 93.5811 105.52 96.5211 105.52C99.1811 105.52 100.581 103.42 100.861 102.86L128.021 41.8199C128.581 40.5599 129.281 39.9999 129.981 39.9999H141.041C141.741 39.9999 142.301 39.4399 142.301 38.7399V13.9599C142.301 7.93991 138.381 3.1799 132.501 3.1799Z" fill="#FF1C31"/>
<path d="M175.88 39.9999H215.22C218.72 39.9999 221.52 42.3799 221.52 45.8799C221.52 46.5799 222.08 47.1399 222.78 47.1399H230.06C230.76 47.1399 231.32 46.5799 231.32 45.8799V22.4999C231.32 10.3199 221.24 0.659912 209.06 0.659912C196.46 0.659912 193.94 7.0999 192.82 7.0999C192.68 7.0999 192.54 6.95991 192.54 6.81991C192.54 6.67991 192.68 6.25991 192.68 5.97991C192.68 4.29991 191.42 3.03991 189.74 3.03991C188.06 3.03991 186.8 4.29991 186.8 5.97991C186.8 6.25991 186.94 6.67991 186.94 6.81991C186.94 6.95991 186.8 7.0999 186.66 7.0999C185.54 7.0999 182.88 0.659912 170.42 0.659912C158.24 0.659912 148.16 10.3199 148.16 22.4999V38.7399C148.16 39.4399 148.72 39.9999 149.42 39.9999H163.28C163.98 39.9999 164.54 40.5599 164.54 41.2599V66.4599C164.54 67.1599 163.98 67.7199 163.28 67.7199H149.42C148.72 67.7199 148.16 68.2799 148.16 68.9799V85.0799C148.16 97.2599 158.24 106.92 170.42 106.92C182.88 106.92 185.54 100.48 186.66 100.48C186.8 100.48 186.94 100.62 186.94 100.76C186.94 100.9 186.8 101.32 186.8 101.6C186.8 103.28 188.06 104.54 189.74 104.54C191.42 104.54 192.68 103.28 192.68 101.6C192.68 101.32 192.54 100.9 192.54 100.76C192.54 100.62 192.68 100.48 192.82 100.48C193.94 100.48 196.46 106.92 209.06 106.92C221.24 106.92 231.32 97.2599 231.32 85.0799V61.8399C231.32 61.1399 230.76 60.5799 230.06 60.5799H222.78C222.08 60.5799 221.52 61.1399 221.52 61.8399C221.52 65.3399 218.72 67.7199 215.22 67.7199H175.88C175.18 67.7199 174.62 67.1599 174.62 66.4599V58.8999C174.62 58.1999 175.18 57.6399 175.88 57.6399H187.64C188.34 57.6399 188.9 58.1999 188.9 58.8999V60.1599C188.9 60.8599 189.46 61.4199 190.16 61.4199H209.06C209.76 61.4199 210.32 60.8599 210.32 60.1599V47.5599C210.32 46.8599 209.76 46.2999 209.06 46.2999H190.16C189.46 46.2999 188.9 46.8599 188.9 47.5599V48.8199C188.9 49.5199 188.34 50.0799 187.64 50.0799H175.88C175.18 50.0799 174.62 49.5199 174.62 48.8199V41.2599C174.62 40.5599 175.18 39.9999 175.88 39.9999Z" fill="#FF1C31"/>
</svg>

<svg xmlns="http://www.w3.org/2000/svg" fill="none" viewBox="0 0 232 107"><path fill="#FF1C31" d="M132.501 3.18c-6.3 0-6.3 3.36-7.84 3.36-.14 0-.28-.14-.28-.28s.14-.56.14-.84c0-1.68-1.26-2.94-2.94-2.94s-2.94 1.26-2.94 2.94c0 .28.14.7.14.84s-.14.28-.28.28c-1.54 0-1.68-3.36-7.84-3.36-5.88 0-9.8 4.76-9.8 10.78v24.78c0 .7.56 1.26 1.26 1.26h15.4c.56 0 .84.28.84.56 0 .42-.42 1.26-.42 1.26l-10.78 24.08c-.7 1.4-1.26 1.82-1.96 1.82h-12.46c-.7 0-1.26-.42-2.1-1.96l-10.64-23.94s-.42-.84-.42-1.26c0-.28.28-.56.84-.56h9.8c.7 0 1.26-.56 1.26-1.26V13.96c0-6.02-3.08-10.78-8.96-10.78-6.3 0-6.44 3.36-7.98 3.36-.14 0-.28-.14-.28-.28s.14-.56.14-.84c0-1.68-1.26-2.94-2.94-2.94s-2.94 1.26-2.94 2.94c0 .28.14.7.14.84s-.14.28-.28.28c-1.54 0-1.82-3.36-7.98-3.36-5.88 0-8.96 4.76-8.96 10.78v24.78c0 .7.56 1.26 1.26 1.26h11.9c.56 0 .84.28.84.56 0 .42-.42 1.26-.42 1.26L54.241 65.9c-.7 1.4-1.26 1.82-1.96 1.82h-12.46c-.7 0-1.26-.42-2.1-1.96l-10.64-23.94s-.42-.84-.42-1.26c0-.28.28-.56.84-.56h13.3c.7 0 1.12-.42 1.26-1.12V13.96c0-6.02-3.92-10.78-9.8-10.78-6.3 0-6.3 3.36-7.84 3.36-.14 0-.28-.14-.28-.28s.14-.56.14-.84c0-1.68-1.26-2.94-2.94-2.94s-2.94 1.26-2.94 2.94c0 .28.14.7.14.84s-.14.28-.28.28c-1.54 0-1.68-3.36-7.84-3.36-5.88 0-9.8 4.76-9.8 10.78v24.78c0 .7.56 1.26 1.26 1.26h8.26c.7 0 1.4.56 1.96 1.82l27.02 61.04c.28.56 1.54 2.66 4.48 2.66 2.66 0 4.06-2.1 4.34-2.66l20.58-46.06s.7-1.82 1.54-1.82c.84 0 1.54 1.82 1.54 1.82l20.44 46.06c.28.56 1.54 2.66 4.48 2.66 2.66 0 4.06-2.1 4.34-2.66l27.16-61.04c.56-1.26 1.26-1.82 1.96-1.82h11.06c.7 0 1.26-.56 1.26-1.26V13.96c0-6.02-3.92-10.78-9.8-10.78zM175.88 40h39.34c3.5 0 6.3 2.38 6.3 5.88 0 .7.56 1.26 1.26 1.26h7.28c.7 0 1.26-.56 1.26-1.26V22.5c0-12.18-10.08-21.84-22.26-21.84-12.6 0-15.12 6.44-16.24 6.44-.14 0-.28-.14-.28-.28s.14-.56.14-.84c0-1.68-1.26-2.94-2.94-2.94s-2.94 1.26-2.94 2.94c0 .28.14.7.14.84s-.14.28-.28.28c-1.12 0-3.78-6.44-16.24-6.44-12.18 0-22.26 9.66-22.26 21.84v16.24c0 .7.56 1.26 1.26 1.26h13.86c.7 0 1.26.56 1.26 1.26v25.2c0 .7-.56 1.26-1.26 1.26h-13.86c-.7 0-1.26.56-1.26 1.26v16.1c0 12.18 10.08 21.84 22.26 21.84 12.46 0 15.12-6.44 16.24-6.44.14 0 .28.14.28.28s-.14.56-.14.84c0 1.68 1.26 2.94 2.94 2.94s2.94-1.26 2.94-2.94c0-.28-.14-.7-.14-.84s.14-.28.28-.28c1.12 0 3.64 6.44 16.24 6.44 12.18 0 22.26-9.66 22.26-21.84V61.84c0-.7-.56-1.26-1.26-1.26h-7.28c-.7 0-1.26.56-1.26 1.26 0 3.5-2.8 5.88-6.3 5.88h-39.34c-.7 0-1.26-.56-1.26-1.26V58.9c0-.7.56-1.26 1.26-1.26h11.76c.7 0 1.26.56 1.26 1.26v1.26c0 .7.56 1.26 1.26 1.26h18.9c.7 0 1.26-.56 1.26-1.26v-12.6c0-.7-.56-1.26-1.26-1.26h-18.9c-.7 0-1.26.56-1.26 1.26v1.26c0 .7-.56 1.26-1.26 1.26h-11.76c-.7 0-1.26-.56-1.26-1.26v-7.56c0-.7.56-1.26 1.26-1.26z"/></svg>
